X: 1
T: the Dashing White Eejit
R: reel
C: Allan Henderson (MCPS)
S: handwritten page in Concord Slow Scottish Session collection
Z: 2015 John Chambers <jc:trillian.mit.edu>
N: Allan reportedly wrote it for his sister who injured herself dancing the Dashing White Sergeant.
L: 1/8
M: C|
K: E
f |\
"E"eB B/B/B "A"ecce | "E"Bcef "B7"gffg | "E"eBeg "F#m"fagb | "A"aAgA "B7"fgec |
"E"eB B/B/B "A"ecce | "E"Bcef "B7"gffb | "A"aAgA "F#m"fgec | "B7"Bebg "E"fee :|
|::: B |\
"F#m"cffe fAaA | "B7"gbfg efce | "E"Beed e/e/e eg | "B7"bgfa "E"gee2 :::|
